P5
32 32
255
¹¸¸µ¸¹¹¸º¹¸¹¹¹¹¹¸¹¸¸¹º»»»»ºººººº”¤²²°¸¹¸¹»»»»»»»»»»»»½½½½½¼¼¼¼¼¼y€‰ˆŠ™›‘”¬¶¸º»¼»¼¼¼¼¼½¼½¼½¼¼¼¼¼¼~}€ƒŠ†szˆ“§¹½¼½¿½¾¿¾¼¼¼¼½¾¾¾¾½ƒ||ˆƒƒyqqnuqu’«°¸¼»º¹¶­¤¦§­³³³µª„|x‚|wsokl{|oru|¥’†xs}‹’ˆ†|omonklmkkpsnmmlov~ƒ}ysnqzƒ…}€~xpmkjjkkkjklmmklorsqrqpmpz‚€yt‰…unljjjjjjlmmmllmnoqqlmlms{€‚x†xnnllkkkkmnnnoponquuoonmmt€‚‚~‰uzzwssqrtv|{ruutuxxuttttx~€‚ƒ“—‰„™“†zzz{€‡Œouyw}‚~}~ƒ…‚~€‚¤ª“–²Ÿ~…‡Œwsvo‹„Š‚‚…„€zptu›¤–˜¥‘‹‚¡•…‡€vuerxvŒtsqle_W]a†Š†‡‡‚…y¤”~Šƒ„€utqz†rsllnfcfiƒ€vy‚{wu~„ƒ„—”†††ƒƒ†…ƒ€ƒƒ€€‚~uw|vqpw{|’—•Œƒx~}yyz~‚‚ƒ‚zztv}wrnnuyzˆ¡¥²ªˆh†{zttu{~~|}{stnqwtqmoxz Èº¾É¢h…›ƒxyyw|||zzxoopuz}ynu ’¯Ôº·Ë±|‹§Œtwtzz{{{x‡†‰’›ŠŒ»Â½¿ÈÂÀÂ¿°¬³¢ƒhfyz}}|y}|trny†‡¯¬²»¹¿Á¾ÇÆ¾¸¶¦y_kyz}|{ypmgfahkmœŸ¦°®©©¦®¯ª­¬XQoyz|{zypmmonpomw–—¤®¤£¡Ÿ˜˜œ•[Ogxzyxxvomnopookqƒ‡…•¤–†…}m_ivwvvvtollonlmjoy|zŒ••—„w†‰|unnsvuvwtlkmlklkhksww…ˆ†Š}r€…{vrpqstsrskkmkknmiikpq}‡€ƒwq|}yvroopprrnokkkjjlkjjloq{‚}zztsz{vtpmmrprsqphggfhkihggjkpusqrroopmmmmmonlmroebdeggbbeghinswywokmnomllkoqmmrnba`bba`^`bccgijpoikmmligiklnolge