P5
32 32
255
˜•”———œ›•”—™™›œ›™˜–§¥¢¥ŸŸžž›—•—“‘—šš“—–™ ’—Ÿ›žœ—˜¤¢¡¢ žž™›˜™”“™™™—š˜—›“—––˜ž¬œ™œ £¦   œ˜“›–—›š™–œ˜•v‹”œ›Œ’µž–˜žŸ›œ¤¥’‘›˜–›™—†m››š›š˜«•’––”š™Ÿ¢¢ ‘““™™—ž š“l|š™ŸŸœž›ƒŒ›”’“˜£›™Ÿ–‡•ž–“—š”‹Y—œ–‚ˆž›wŒ›‘‘™Ÿ—˜š–šÈ½‰„ˆ‹‘m\™‰~m|—›œt„™ˆ——–›–™¢ØáŠm‚†ˆ‹ƒFEsnTg–£¨n…–~–˜•™™™›¤Þ±`fmv~…nDOg`a±•–xh|…‹¢Ÿœ›™›”—¡’{upknteXitf‰¼”wsbgct’ Ÿ£žž›””—“‹†ztujaep–È’oywmjcz…Œ–£§¦¦¡š‹—š–’‚xogg¨ß˜buvvzovƒƒ…Œ•’£¦œ‹ƒ—œ’Œ–“|pkt½®Qnxuvwttw~ƒ‡’ÉÒ±Š‹™•˜™~sw`[k\ppspswtuwvy|…Äïâ¡Š‹œ š™˜ysrNbponpflzxtqtvpŠéó¹ƒŒ››£œ—–…jIZ]fvvm_P^vvni`hf‚µº‰Œ—˜ œ›“ƒX:F`kqkZUj†˜•ˆ‰‰ƒˆ•’”•’™ž›¢•š“_>ak^T[|›š ™——™ž¥œ£œ•™–•œ¡¢–qd‚aYZWl…›¡¡¥ž–˜™˜¢ž”—Ž™ ›—žœ¥N7\_F]|ž£šž¡¦¡ ™¡™Š…†œŽ˜š›¦™qehEOp—£¨¢ ¤¡¨§¢›¤›šŠ|¦œ’£Ÿš›š…XFj‡¥Ÿ¢ž¥­¡§©Ÿ ¢ž–“†zo§§ŸªŸœxxdIQ…”¥¢¢ ¤©žŸ¡œ¤¢™˜„xiœ£œŸœœˆ}s[Kl–›¥¤¤¤¦¡£¨§žœ ˜ƒ„vj£š¡œ“…}mT\Š–¤ž§¡£±©ª¤¦© –”‹€~uk¨›ž¡•‰†yaUuœ¤£Ÿ¤¢¤­®®£›š™‘Œ†|uoi¨›œ™›ƒlYm’¨­¤£«¥¦¬¬¤—š˜Š~xqln°¡™š–z`o’¥ £š«³¸©¤ª±§œ —“†ywqks¬Ÿ§œ•‹is’£ œš «²¸²¤§¶¨—˜’’‹ƒxpmn­¤£œ«p™¦ž“š £®µ°®ª¬³œ”‘‘‹€vige£¥Ÿ §ž¡§œ“¬¨²¸¯¨¦¢«–†Œ‡~wkfd