P5
32 32
255
„|‚ppzks€‰ƒvil‹…‘Žy‡ƒzzƒt|~‡ƒw|wpz˜‡wƒy}}x‡}}txsz€ˆ|{n|„t|q†‚gsqjqy‰kz‚‹ˆz€hp€€y‚|r‘|sv†{zpk€…~‹vu…}oŠƒ{vl{€ƒ€q{‰†z|wz–š‚}znwr†„jyŠ‚~v{€sƒŠ‹~ƒ‹{“ywpt…uv„€ok„}~ŠŽwor†~z…‡ˆ{y‰~‰“xjqs†~|„w~w‰‚‡~|wy|yzˆƒ}r‰yˆvu~ttœˆ€Š€“–—|{uq‚†Š{p|uh{u~}ƒv}}•‚‹†€˜¡“‡Š‹‚}ˆ{ww|„|”¡›µ£‹Š…o{y…}ž©£§˜|kqw~‹…xu€œ‚VP‡ÓÜ³–Ž…}‚„”ÂºŸ¢sg^\ncWb{pt„—­B@@X¬È¦‰›˜¤§¬¦—vXPM39IJ]qz…›|ŒÜa>DFB^vš¯³´¶¡ibkpVA+(JM^m„‡rq¿<DIIP\{—”sr‹•s9%"4avrxou|m~ŠE:8LVXasš˜q‰­¢ŒO"62_f‚Œ‚t`]zxsvTIQY[X[av¢´­œo+F_]€„|tq‚e‰~‡©—wahvX\[]j¯­TBk…wqntz…l’¤‘’lª°lV_`ddu‚–y0!;z|~‰nv‚mf^fx~t_‚‹Ç¾ˆZcef]_‚¢Õ¥8O……“{kj€]_f`ery{v­ÂÓ…bca^_”¸âïê¡D=y‹yus…^YSack„|gkp‡ˆO\Yq¢ºØñîîë’:^hsrkrRn]zol€]eLauzp†›°Êððððé·e6H_w{vUa^[lfhg`pj{Nay‘»ëïðñêÂ­›FGSlu~O]ljŽwyeslƒor>SGw²ãôóòÙº°†29XWmq?ejs‡nl_gazj_vwm°áÜ½¼¥<*GGYaJcm\cvbVjjkuruwl}~‚s~”ª®X*5M`jucofY``SVsev‡‚f{ob][[q/4J\bj~o[o~neadmwpw…›y{vd_R]sVavep~ƒ„|x\jŠxuf‡of‰xnqdekU{cn…veafrŠ‚‡‹_xxeyuƒWo‡{odiXPNZ‡„‡^k~xrudgpni‚vuvfY~ojro^RInyl}piyvoavye|q]…vywyqgr_~€aXxtliwswpr]Th€uvuoc