P5
32 32
255
ЫЭбвввввбаббаааЯЯаЮЮЭЭЬЪЩЧЧШЩШЪЬШЩЫЮЮЯЮЮЮЬЬЭЭЬЬЬЫЩЖТЬЧЦФТСССТУУХЪЪЬЮЮЯЮЮЮЬЬЭЮЬЬЬЫЛ¶ОЪЦФРООПНПТФУЫЪЫЭЭЮЯЯЮЭЬЭЭЫЪЩРГЅНЦСПНЛМЛКЛНООЩЪЬЭЬЬШФРФЬЬЬЩЪХКИЗМРНМКЙЙЗДЕЗИЗЧШЪЫЫЫТСЖёЩЩЙФХРУФРЛОНЙЗЕДВїААБАТУХШШЪЪЮЅЏЛЩПХТХЫЩЦЛММЖДВАѕ»јЅјјМНРФХЦЧЫ¶љЧЪЦЧЭббЮЫНЙЙДБїѕ»¶ё№··ЖЖЙМОТУЧµ›ЦШОЦбеежвФЙЗВѕј»ёµµµґ±АБДЖИМОР»®УЧавбиизжЫКЗВЅєёµІ°°­«»ЅїГДЖИКАЈµалеЯджзлбМЖАј№µ±­¬­Є©ёєЅАБГДЗёЊЅлкбЮагегЭЙДБЅ·І®ЄЄ«Ё¦¶ё»ЅАГВЖ·©ЪйеЮЭЮваЪЧЙЖВїё±ЄЄ«©ҐЈґ·№јАГБЖєІЩзвЮЬЮбЬЪЪКВГЅ¬њљ‘›ўўџ±ґё»ѕАїЕ·ЇЬдЭЪЬаЮЬЬЬЗЁџќ‹Ђ‡wqt“™«®іё»ЅѕГІЁЭбЦЧЭЮЪЬЮЫОќЋЊ‡mUhU]s€©«ЇґёєѕЗµҐЪЮЧЬбваЮЭЫЧЈ‚‹§}k xPmЂЂѓЉђ—›¦ќҐЫЪЩЯбббЭЪТОГЈѓdR{oO[YjlnopsrswЄЫЫЫЮЭЪЬЫЦССК†Z[WTYYWY\qssuuwxxxЈУЩЭбЫЩЫШПЙЖИ¤mjjjjjkjjuuuwyyz|w—МЪЮЮЧХУСЙДј№Ї~orqpqpnnyyz{|}}Ѓv€ЙЮЧРМКЛИБіҐ‘tmtoqssrrvwxyz{y}r„ИХОИДј©Љ}sjbOIHMx‚vroѓ†Ђ‡ЏЌ”ѓґДБёўѓkc^VOLA3H[]lIB†™і·є®їЙЗµќ}Ђ}sk]RJFCHOVjipbJ8#1›ЩЕЙї¶Б№Ї|cIGCHIRWYg`ho]VC:8Cfђ¬МбВБґҐЋ€Ћ„yM:6Tini]]L?910@[uЏ®ИЪвеєё№љC-.+)$!#&!"'1>I\uЏҐµБИФЮджйАіR 
		-=Sm„™Є·ГОЦЩЬЬЮгийлј±U$(,49DWktЃЁІјДНЦЪЫабЯвегвжкмАїІ ›ћ¦ЇІјДДЕТЫаЮЬЯбаЯвбезкнкйлрЫЬаЬУСУЪЭдеежйммкзииизиймнптпотц