P5
32 32
255
ûûרץסץתûü‎‎üüüûû‏‎‎‎‎‎‏‏ÿÿÿ‏üü‏‏‏üüüקקץרû‎üüüüüû‏‏‎‏‏‎‏‏ÿÿÿ‎ûü‏‏‏‎‏‎צעסרûüüüüüüû‎‎üüüü‏‏ÿÿ‏‏üüüü‎‏‏üעמפתûüüüüüüû‎üüתקתü‏ÿ‏‏‏‎‎‎‎û‎‎תןלצרûüüüûûûת‎üüשץשû‏ÿ‏‏‏üüü‎עקקעכךסרü‎‎üûûü‎‏‏‎ûר‎ü‏‎‏‏‎üûשûלןנמליכערûתרûû‎‎‎üüüûü‏‏ü‎‎ûרשקריךךטטזחךעקץפקש‎üתתû‎תש‎‎üתתתרקפףיטטוחזטזםענםןעשתצקרûשץûüüשצששקססטטטטלטחוחכיחחכעצעעעצץףרקששענףפסעזטזהךחודוחחווימפןממעףעצעץשןחךןססזטךטכודזוחטזווכפםךלעצצûקצרסכלםמםטוßאדזךהחייחוהימלךכמננצקרצעסםלםכיו¸ ³ײוטךטזווחטכךךכטטםףקפסןכככךטדָ־ױגהבוחודוווויזטטודחםססכחהטחזהÛ¾ÞספחאדוהדגדווטזחטוגויכםיחבזוהÞ²¸״עמ״ֶַָֹֻּּÊֽֿֿֿ־ֽÊּֿֿֿׁױֹֻÊÊµ†»זûשָ—˜¡  ¡¢×«–•‰›¸½Ùחטֱ’’–•˜•˜˜—•™—•˜–˜£₪‘‡±ְ¥ֶ¾ֳ·¡₪¨§£¦§₪‘–™—–—™™• ™˜–xYW•¢×­‹©©¢¢¨±¥•«­®­¯®×–«ַֹ¼˜Y5=l“•™› ‘…‘–££§‹“„vW]w=:DOXenx‹˜™ –’’—”™’ƒb760/+G™kRB:<8<8;?BDR_lu††“¬–n912,+-Wm_^OKHCDC75654769=IPWgmW01.*,(q“re_bhkgbf]c]CCDA989854650/01*4†›}ohkpw€rpijuhhce\PF932..5*+),7’xpmy€vr_Zag_nvjbabRJD>FKSy~ ’ˆ†•§¡₪¢†vvtebn|a[fi}†—˜‘‰¥³´¾ֳ·°³¯§₪£“vi]UQPLMPFC}›’•¡±¾ֱָÊְֱֲֲֳִֵ¸¬₪“…v_=2.(/5h’“¬·ְֶּֽÊּ־ֵּֽֽ¿¸¬”_QC797V