P5
32 32
255
PQSVWZ[ZXYZZZZYYXWVUSPMKIFDCBA=;PQSUX[\\[[[\\\[ZXWVTRPMJHEDBA?=:QRUWZ\^][[\\\\\\ZYXVSPLKIGFCB@><RTVY[]``]]]]]]]][[ZXURNLJIGECB@=RUWZ\_bcb````aa`_^\ZWTPMLJIFDBA?SUX[^adggdddddddba_\YVQPNLJHFDB@UVY\_cfijihgghggeec_\WTRQNLJHGCATW[^aehkmnmllmmljieb^[XUSOMJHFEBUY\`cfjoqrsrrrrrpnie`^[XTQNLJHECVY\adhlpuyyxwwwwtqmgb_[WTQNLJGFDUX[`dilpw}~~qxzuqjd`[WSPMKIGDBRUY`cjnt|ƒ‡†…Vi€{unf`[XUQMKIFCAQSW`fq}ˆŽŽ’–†H`‹…}tlfa]YURNKHEQSW\dr€Œ’”˜œ¢€B]“š”‘Œ†wqi`XTOKIPSVY_lxˆ’™¤‚:I‚“ŒŠ†€{une\TQLGERVVX_lv„˜Ÿ¦¬Ž:0Xz{uog_XPMKFA?TZYY_gp|‘‚xU1(,7=DJRQNKIGED@<9QUVV\[SERM4=30-+)$"%# $,.5=:74HKNQVPH120FN,/:3*###E7*$0=9773/-?BEJPV]`fm‚ƒ_QfD1,@N_`UMHF@;71,+7:@EKQYfu‚Œšœ…o^X]fikaRJE@=82-*59>EKQZer€‹“›ª°¯¥”„yl_TLFA;50,)25;BGMT\fs–Ÿª«¤š“‡wh[RKF@:40,)-/4;AEKRZfr—™š—“ŒseXOIC=73.+**,16<BHMU`kw„““’Œ„zn`TKE@:4/+)()*-28=CJQZepzƒ‰‰†€yqg[OGB=61,)('))*.4:@FLV^gpw{{xsmg`UJE@:4.*(''((),17=BHOW^ekonkfa]WNFA>93-)(&&'&'+05:>DIPV]adb`]WSPID?<93-)(&&&&')/36;?DINSWWWUROMJDA?;82,)(''&&'*.147:=BFIKLLJIGFC?><:61,)''&'&'(+.1458<>?@ACA@?>=;9874/+)'&&